X:205
T: Sally Hegarty's
S: Treoir
Z: B.Black
M: 9/8
L: 1/8
R: slip jig
K: G
G2 A Bee Bee|GFG BdG AFD|G2 A Bee Bee|d^cd ABG FED :|
K: D
d2 e fdf ecA|d2 e fdf gfe|d2 e fdf ecA|Bcd ABG FED :|
